img/logo-white.svg

<svg width="300" height="49" viewBox="0 0 300 49" fill="none" xmlns="http://www.w3.org/2000/svg">
<path d="M283.109 21.0691C283.489 20.1043 284.021 19.2716 284.705 18.5711C285.402 17.8705 286.219 17.3286 287.156 16.9453C288.106 16.562 289.151 16.3704 290.291 16.3704C291.039 16.3704 291.818 16.4827 292.628 16.7074C293.439 16.9321 294.136 17.2361 294.718 17.6194L294.414 19.2253C293.578 18.7891 292.825 18.4785 292.153 18.2935C291.495 18.0952 290.811 17.9961 290.101 17.9961C288.974 17.9961 287.973 18.2604 287.099 18.7891C286.238 19.3046 285.567 20.025 285.085 20.9502C284.604 21.8622 284.363 22.9262 284.363 24.1422C284.363 25.3846 284.604 26.4618 285.085 27.3738C285.567 28.2858 286.238 28.993 287.099 29.4952C287.973 29.9975 288.999 30.2486 290.177 30.2486C290.874 30.2486 291.609 30.1495 292.381 29.9512C293.154 29.753 293.908 29.4754 294.642 29.1185L294.832 30.7046C293.338 31.4844 291.754 31.8744 290.082 31.8744C288.98 31.8744 287.967 31.6893 287.042 31.3192C286.13 30.9359 285.339 30.4072 284.667 29.7331C283.996 29.0458 283.477 28.2396 283.109 27.3144C282.742 26.3759 282.558 25.3516 282.558 24.2413C282.558 23.0914 282.742 22.034 283.109 21.0691Z" fill="white"/>
<path d="M277.337 16.5885H279.047V31.6563H277.337V16.5885Z" fill="white"/>
<path d="M260.831 16.5885H262.484L271.3 29.0591V16.5885H272.877V31.6563H271.224L262.408 19.1857V31.6563H260.831V16.5885Z" fill="white"/>
<path d="M254.659 16.5885H256.369V31.6563H254.659V16.5885Z" fill="white"/>
<path d="M242.736 16.5885H244.446V30.1297H251.533V31.6563H242.736V16.5885Z" fill="white"/>
<path d="M227.315 21.0691C227.695 20.1043 228.227 19.2716 228.911 18.5711C229.608 17.8705 230.425 17.3286 231.362 16.9453C232.312 16.562 233.357 16.3704 234.497 16.3704C235.245 16.3704 236.024 16.4827 236.834 16.7074C237.645 16.9321 238.342 17.2361 238.924 17.6194L238.62 19.2253C237.784 18.7891 237.031 18.4785 236.359 18.2935C235.701 18.0952 235.017 17.9961 234.307 17.9961C233.18 17.9961 232.179 18.2604 231.305 18.7891C230.444 19.3046 229.773 20.025 229.291 20.9502C228.81 21.8622 228.569 22.9262 228.569 24.1422C228.569 25.3846 228.81 26.4618 229.291 27.3738C229.773 28.2858 230.444 28.993 231.305 29.4952C232.179 29.9975 233.205 30.2486 234.383 30.2486C235.08 30.2486 235.815 30.1495 236.587 29.9512C237.36 29.753 238.114 29.4754 238.848 29.1185L239.038 30.7046C237.544 31.4844 235.96 31.8744 234.288 31.8744C233.186 31.8744 232.173 31.6893 231.248 31.3192C230.336 30.9359 229.545 30.4072 228.873 29.7331C228.202 29.0458 227.683 28.2396 227.315 27.3144C226.948 26.3759 226.764 25.3516 226.764 24.2413C226.764 23.0914 226.948 22.034 227.315 21.0691Z" fill="white"/>
<path d="M212.282 16.5885H214.163L220.034 31.6563H218.191L216.481 27.0963H209.869L208.159 31.6563H206.411L212.282 16.5885ZM215.911 25.6093L213.175 18.3133L210.439 25.6093H215.911Z" fill="white"/>
<path d="M188.505 16.5885H190.215L195.763 27.3937L201.235 16.5885H202.945L203.648 31.6563H201.995L201.463 19.265L196.485 29.0987H194.965L189.968 19.4236L189.455 31.6563H187.802L188.505 16.5885Z" fill="white"/>
<path d="M177.303 16.5885H179.184L185.055 31.6563H183.212L181.502 27.0963H174.89L173.18 31.6563H171.432L177.303 16.5885ZM180.932 25.6093L178.196 18.3133L175.46 25.6093H180.932Z" fill="white"/>
<path d="M166.741 25.1732V31.6563H165.031V25.1533L159.597 16.5885H161.516L165.943 23.7853L170.389 16.5885H172.194L166.741 25.1732Z" fill="white"/>
<path d="M144.78 16.5885H146.49V25.312C146.49 26.9641 146.857 28.2198 147.592 29.0789C148.339 29.9248 149.429 30.3478 150.86 30.3478C152.291 30.3478 153.374 29.9248 154.109 29.0789C154.856 28.2198 155.23 26.9641 155.23 25.312V16.5885H156.94V25.4706C156.94 27.5193 156.395 29.1186 155.306 30.2685C154.229 31.4052 152.728 31.9735 150.803 31.9735C148.903 31.9735 147.421 31.4052 146.357 30.2685C145.306 29.1186 144.78 27.5193 144.78 25.4706V16.5885Z" fill="white"/>
<path d="M140.163 29.9314C139.745 30.5791 139.156 31.0813 138.396 31.4382C137.636 31.7951 136.73 31.9735 135.679 31.9735C135.134 31.9735 134.577 31.9206 134.007 31.8149C133.437 31.7092 132.892 31.5704 132.373 31.3985C131.866 31.2135 131.435 31.002 131.081 30.7641L131.29 29.1185C131.898 29.5019 132.594 29.8125 133.38 30.0504C134.165 30.2883 134.906 30.4072 135.603 30.4072C136.667 30.4072 137.509 30.1693 138.13 29.6935C138.75 29.2177 139.061 28.57 139.061 27.7505C139.061 27.2747 138.959 26.8716 138.757 26.5412C138.567 26.2107 138.225 25.9067 137.731 25.6292C137.237 25.3516 136.546 25.0608 135.66 24.7568C134.583 24.3867 133.728 24.0034 133.095 23.6069C132.461 23.2104 132.012 22.7544 131.746 22.2389C131.48 21.7234 131.347 21.1022 131.347 20.3752C131.347 19.5425 131.543 18.8222 131.936 18.2142C132.341 17.593 132.898 17.1172 133.608 16.7867C134.317 16.4431 135.147 16.2712 136.097 16.2712C136.793 16.2712 137.503 16.3704 138.225 16.5686C138.947 16.7537 139.593 17.018 140.163 17.3617L139.878 18.9279C139.32 18.5843 138.706 18.3199 138.035 18.1349C137.363 17.9366 136.717 17.8375 136.097 17.8375C135.134 17.8375 134.38 18.0556 133.836 18.4918C133.291 18.9147 133.019 19.5029 133.019 20.2563C133.019 20.7057 133.107 21.089 133.285 21.4062C133.462 21.7102 133.772 21.9944 134.216 22.2587C134.672 22.5098 135.299 22.7808 136.097 23.0716C137.262 23.4813 138.187 23.8977 138.871 24.3206C139.555 24.7436 140.042 25.2194 140.334 25.7481C140.638 26.2768 140.79 26.898 140.79 27.6118C140.79 28.4973 140.581 29.2705 140.163 29.9314Z" fill="white"/>
<path d="M121.781 18.1151H116.841V16.5885H128.431V18.1151H123.491V31.6563H121.781V18.1151Z" fill="white"/>
<path d="M109.282 16.5885H111.163L117.034 31.6563H115.191L113.481 27.0963H106.869L105.159 31.6563H103.411L109.282 16.5885ZM112.911 25.6093L110.175 18.3133L107.439 25.6093H112.911Z" fill="white"/>
<path d="M85.5046 16.5885H87.2146L92.7626 27.3937L98.2346 16.5885H99.9446L100.648 31.6563H98.9946L98.4626 19.265L93.4846 29.0987H91.9646L86.9676 19.4236L86.4546 31.6563H84.8016L85.5046 16.5885Z" fill="white"/>
<path d="M38.1568 24.5923C38.1568 30.481 33.5652 35.2777 27.9167 35.2777C22.2682 35.2777 17.6765 30.4864 17.6765 24.5923C17.6765 18.6983 22.2682 13.907 27.9167 13.907V0.673828C15.2818 0.673828 5 11.4027 5 24.5869C5 37.7712 15.2818 48.5 27.9167 48.5C40.5516 48.5 50.8334 37.7712 50.8334 24.5869H38.1568V24.5923Z" fill="white"/>
<path d="M49.1308 0.505431C36.4959 0.260975 26.0267 10.7942 25.7976 23.9785L38.4742 24.223C38.5783 18.3995 43.1491 13.7331 48.7091 13.7331C48.7716 13.7331 48.8341 13.7331 48.9017 13.7331C54.545 13.8418 59.0534 18.72 58.9493 24.6086C58.8452 30.4973 54.1702 35.2071 48.5269 35.093L48.2926 48.3207C48.4332 48.3207 48.579 48.3207 48.7195 48.3207C61.1618 48.3207 71.3967 37.8798 71.6258 24.8477C71.8601 11.6634 61.7657 0.73902 49.1308 0.5L49.1308 0.505431Z" fill="white"/>
</svg>

<svg xmlns="http://www.w3.org/2000/svg" width="300" height="49" fill="none"><path fill="#fff" d="M283.109 21.07a7.4 7.4 0 0 1 1.596-2.499 7.3 7.3 0 0 1 2.451-1.626q1.425-.575 3.135-.575 1.122 0 2.337.337 1.217.338 2.09.912l-.304 1.606q-1.254-.655-2.261-.931a7 7 0 0 0-2.052-.298q-1.69 0-3.002.793a5.33 5.33 0 0 0-2.014 2.161q-.722 1.368-.722 3.192 0 1.864.722 3.232a5.23 5.23 0 0 0 2.014 2.121q1.311.754 3.078.754 1.046 0 2.204-.298a12 12 0 0 0 2.261-.832l.19 1.586a10.1 10.1 0 0 1-4.75 1.17q-1.653 0-3.04-.556a7.3 7.3 0 0 1-2.375-1.586 7.3 7.3 0 0 1-1.558-2.419q-.55-1.407-.551-3.073 0-1.725.551-3.172M277.337 16.589h1.71v15.067h-1.71zM260.831 16.589h1.653l8.816 12.47V16.59h1.577v15.067h-1.653l-8.816-12.47v12.47h-1.577zM254.659 16.589h1.71v15.067h-1.71zM242.736 16.589h1.71v13.54h7.087v1.527h-8.797zM227.315 21.07a7.4 7.4 0 0 1 1.596-2.499 7.3 7.3 0 0 1 2.451-1.626q1.425-.575 3.135-.575 1.122 0 2.337.337 1.217.338 2.09.912l-.304 1.606q-1.254-.655-2.261-.931a7 7 0 0 0-2.052-.298q-1.69 0-3.002.793a5.33 5.33 0 0 0-2.014 2.161q-.722 1.368-.722 3.192 0 1.864.722 3.232a5.23 5.23 0 0 0 2.014 2.121q1.311.754 3.078.754 1.046 0 2.204-.298a12 12 0 0 0 2.261-.832l.19 1.586a10.1 10.1 0 0 1-4.75 1.17q-1.653 0-3.04-.556a7.3 7.3 0 0 1-2.375-1.586 7.3 7.3 0 0 1-1.558-2.419q-.55-1.407-.551-3.073 0-1.725.551-3.172M212.282 16.589h1.881l5.871 15.067h-1.843l-1.71-4.56h-6.612l-1.71 4.56h-1.748zm3.629 9.02-2.736-7.296-2.736 7.296zM188.505 16.589h1.71l5.548 10.805 5.472-10.805h1.71l.703 15.067h-1.653l-.532-12.391-4.978 9.834h-1.52l-4.997-9.675-.513 12.232h-1.653zM177.303 16.589h1.881l5.871 15.067h-1.843l-1.71-4.56h-6.612l-1.71 4.56h-1.748zm3.629 9.02-2.736-7.296-2.736 7.296zM166.741 25.173v6.483h-1.71v-6.503l-5.434-8.564h1.919l4.427 7.196 4.446-7.196h1.805zM144.78 16.589h1.71v8.723q0 2.478 1.102 3.767 1.121 1.269 3.268 1.269t3.249-1.27q1.12-1.288 1.121-3.766v-8.724h1.71v8.883q0 3.073-1.634 4.797-1.616 1.706-4.503 1.706-2.85 0-4.446-1.706-1.577-1.725-1.577-4.797zM140.163 29.931q-.627.972-1.767 1.507-1.14.536-2.717.536a9 9 0 0 1-1.672-.16 12 12 0 0 1-1.634-.416 6 6 0 0 1-1.292-.634l.209-1.645a8.5 8.5 0 0 0 2.09.931q1.178.357 2.223.357 1.596 0 2.527-.713.93-.714.931-1.944 0-.713-.304-1.209-.285-.495-1.026-.912-.742-.416-2.071-.872-1.615-.556-2.565-1.15-.95-.596-1.349-1.368-.399-.774-.399-1.864 0-1.249.589-2.16a3.9 3.9 0 0 1 1.672-1.428q1.064-.516 2.489-.516 1.044 0 2.128.298 1.083.277 1.938.793l-.285 1.566a7 7 0 0 0-1.843-.793 6.8 6.8 0 0 0-1.938-.298q-1.445 0-2.261.655-.817.634-.817 1.764 0 .675.266 1.15.265.456.931.853.684.376 1.881.813 1.748.615 2.774 1.249 1.025.634 1.463 1.427.456.793.456 1.864 0 1.328-.627 2.32M121.781 18.115h-4.94V16.59h11.59v1.526h-4.94v13.541h-1.71zM109.282 16.589h1.881l5.871 15.067h-1.843l-1.71-4.56h-6.612l-1.71 4.56h-1.748zm3.629 9.02-2.736-7.296-2.736 7.296zM85.505 16.589h1.71l5.548 10.805 5.472-10.805h1.71l.703 15.067h-1.653l-.532-12.391-4.978 9.834h-1.52l-4.997-9.675-.513 12.232h-1.653zM38.157 24.592c0 5.889-4.592 10.686-10.24 10.686s-10.24-4.792-10.24-10.686 4.591-10.685 10.24-10.685V.674C15.282.674 5 11.403 5 24.587S15.282 48.5 27.917 48.5s22.916-10.729 22.916-23.913H38.157z"/><path fill="#fff" d="M49.13.505C36.497.261 26.028 10.795 25.799 23.978l12.676.245c.104-5.823 4.675-10.49 10.235-10.49h.193c5.643.109 10.151 4.987 10.047 10.876S54.17 35.207 48.527 35.093l-.234 13.228h.426c12.443 0 22.678-10.441 22.907-23.473C71.86 11.663 61.766.739 49.13.5z"/></svg>
